X:6
T: Roland und Godelinde
N: A0008
O: Europa, Mitteleuropa, Flamen
R: 310Romanze, Ballade, Lied
M: 3/4
L: 1/16
K: A
A3B | =c4A4E4 | A3BA4
A3B | =c4A4E4 | A3BA4
A3=c | B4=G4E4 | =G3AG4
G3A | B4=G4F4 | E3FE2z2
=C3D | E4E4=F4 | =G3AG4
A3A | E4E4A4 | B3=cB4
A3B | =c4A4E4 | A3BA4

@@@ Tune index: 6
